icons/_assets/type.svg

<svg width="100" height="100" xmlns="http://www.w3.org/2000/svg"><path d="M77.2645118,11.5336027 L21.4234343,17.8958923 C20.5736027,17.9915152 19.9325253,18.7107071 19.9325253,19.5659259 L19.9325253,29.9713131 C19.9325253,30.9760269 20.8065993,31.7571717 21.8032323,31.6426936 L41.6847138,29.3787205 L41.6847138,88.5585185 C41.6847138,89.5632323 42.5574411,90.3430303 43.5554209,90.2285522 L55.8921212,88.8238384 C56.7419529,88.7268687 57.3830303,88.0076768 57.3830303,87.1524579 L57.3830303,27.5888215 L77.6456566,25.2817508 C78.4941414,25.1847811 79.1365657,24.4655892 79.1365657,23.6103704 L79.1365657,13.2036364 C79.1365657,12.2002694 78.2611448,11.4204714 77.2645118,11.5336027" fill="#134B45" fill-rule="evenodd"/></svg>

<svg width="100" height="100" xmlns="http://www.w3.org/2000/svg"><path d="m77.265 11.534-55.842 6.362a1.68 1.68 0 0 0-1.49 1.67V29.97a1.68 1.68 0 0 0 1.87 1.672l19.882-2.264v59.18a1.68 1.68 0 0 0 1.87 1.67l12.337-1.405a1.682 1.682 0 0 0 1.491-1.672V27.59l20.263-2.307a1.683 1.683 0 0 0 1.49-1.672V13.204a1.682 1.682 0 0 0-1.871-1.67" fill="#134B45" fill-rule="evenodd"/></svg>
